src/assets/img/providers/felt.svg

<svg width="48" height="32" viewBox="0 0 48 32" fill="none" xmlns="http://www.w3.org/2000/svg">
<g clip-path="url(#clip0_4416_8586)">
<path fill-rule="evenodd" clip-rule="evenodd" d="M9.20677 4.22612L8.43629 2.10447L8.4362 2.10455C8.35547 1.88221 8.20543 1.81193 7.98669 1.8937L2.89453 3.80258C2.67526 3.8848 2.60673 4.03703 2.68746 4.25947L8.44138 20.1574C8.52254 20.3806 8.67188 20.4502 8.89107 20.368L10.9798 19.5852C11.1986 19.5029 11.2679 19.351 11.1872 19.1284L8.58431 11.9072L10.9077 11.0364C11.1264 10.9544 11.1957 10.8022 11.1148 10.5798L10.344 8.45803C10.2633 8.23604 10.1134 8.16549 9.89425 8.24745L7.57139 9.11848L6.32437 5.68593L8.99943 4.68283C9.21844 4.60079 9.28776 4.44891 9.20677 4.22612ZM21.9046 17.2325L21.6709 14.7858C21.6465 14.5541 21.5181 14.4504 21.2859 14.4746L18.4502 14.7737L17.9125 9.67461L20.375 9.41488C20.607 9.3904 20.7107 9.26221 20.6864 9.02995L20.4528 6.81634C20.4283 6.58425 20.2998 6.48019 20.0678 6.50484L17.6055 6.76457L17.2274 3.18284L20.0629 2.88364C20.2948 2.85916 20.3989 2.73105 20.3746 2.4987L20.1749 0.315974C20.1503 0.0841533 20.0217 -0.0200869 19.7897 0.00448147L14.3583 0.565431C14.1261 0.589912 14.0226 0.718369 14.0468 0.950453L15.8262 17.9137C15.8506 18.1462 15.9788 18.2499 16.2114 18.2252L21.5931 17.6173C21.8251 17.5936 21.9291 17.4652 21.9046 17.2325ZM31.9641 17.9244L32.2967 15.6678L32.2968 15.6679C32.3303 15.436 32.2308 15.3032 32.0002 15.2699L28.93 14.8275L30.9671 0.593597C30.9996 0.361689 30.9011 0.228931 30.67 0.195589L28.4416 0.00737703C28.2096 -0.0260535 28.078 0.073624 28.045 0.305269L25.6246 17.218C25.5916 17.4503 25.6901 17.5829 25.9217 17.616L31.5675 18.2226C31.7986 18.2556 31.9306 18.1563 31.9641 17.9244ZM44.5233 6.32611L45.2726 4.28825C45.3556 4.06976 45.2865 3.91919 45.0684 3.83698L38.9618 1.61406C38.7432 1.53185 38.5925 1.60011 38.5099 1.81824L37.8286 3.80653C37.7467 4.02519 37.8141 4.17523 38.0328 4.25727L39.6719 4.87438L34.5197 18.4939C34.4847 18.5878 34.4904 18.6796 34.5367 18.7683C34.5832 18.857 34.6455 18.9158 34.7245 18.9451L36.8668 19.6016C37.0851 19.6841 37.2351 19.6161 37.3176 19.3974L42.4104 5.90529L44.0726 6.53055C44.2908 6.61259 44.4403 6.54503 44.5233 6.32611ZM13.6494 27.6695V24.8489H14.6845C14.8113 24.8489 14.875 24.7855 14.875 24.6586V24.2774C14.875 24.2301 14.8571 24.1867 14.8214 24.147C14.7855 24.1073 14.7399 24.0872 14.6845 24.0872H13.2686C13.1575 24.0872 13.0662 24.1248 12.995 24.2001C12.9235 24.2759 12.8877 24.3651 12.8877 24.4683V31.62C12.8877 31.7314 12.9235 31.8227 12.995 31.8938C13.0662 31.965 13.1575 32.001 13.2686 32.001H14.6845C14.8113 32.001 14.875 31.9372 14.875 31.8103V31.4297C14.875 31.3822 14.8571 31.3383 14.8214 31.2987C14.7855 31.2595 14.7399 31.2393 14.6845 31.2393H13.6494V28.4311H14.6845C14.7399 28.4311 14.7855 28.4111 14.8215 28.3714C14.8571 28.3317 14.875 28.2878 14.875 28.2403V27.8598C14.875 27.7329 14.8113 27.6695 14.6845 27.6695H13.6494ZM17.3622 25.4559V25.8608C17.3622 25.9877 17.4256 26.0506 17.5526 26.0506H17.9334C18.0603 26.0506 18.124 25.9877 18.124 25.8608V25.4559C18.124 25.2656 18.0881 25.0893 18.0166 24.9262C17.9455 24.7642 17.8446 24.6169 17.7191 24.4921C17.5942 24.3666 17.4469 24.2657 17.2848 24.1944C17.1221 24.1227 16.9457 24.0872 16.7551 24.0872C16.5649 24.0872 16.3882 24.1227 16.2258 24.1944C16.0636 24.2656 15.9162 24.3666 15.7913 24.4921C15.6658 24.6168 15.5649 24.7641 15.4939 24.9262C15.4226 25.0892 15.3867 25.2656 15.3867 25.4559V26.0629C15.3861 26.1343 15.3881 26.2057 15.3926 26.277C15.3961 26.3291 15.4042 26.3809 15.4166 26.4317C15.4285 26.4791 15.4501 26.5312 15.4821 26.5864C15.5265 26.6652 15.57 26.7445 15.6128 26.8242L17.3264 29.8468C17.3422 29.8788 17.3522 29.9026 17.3563 29.9185C17.3601 29.934 17.3622 29.9742 17.3622 30.0372V30.6323C17.3622 30.8067 17.3026 30.9536 17.1837 31.0728C17.0646 31.1913 16.9218 31.2512 16.7551 31.2512C16.5886 31.2512 16.446 31.1913 16.3269 31.0728C16.2081 30.9536 16.1484 30.8067 16.1484 30.6323V30.228C16.1484 30.1801 16.1303 30.1367 16.0947 30.0969C16.0592 30.0572 16.0135 30.0372 15.9578 30.0372H15.5769C15.5215 30.0372 15.4759 30.0572 15.4403 30.097C15.4048 30.1367 15.3867 30.1801 15.3867 30.228V30.6323C15.3867 30.8226 15.4226 31.001 15.4939 31.1676C15.5629 31.3309 15.664 31.4786 15.7913 31.6019C15.9173 31.7246 16.0645 31.8235 16.2258 31.8938C16.3882 31.965 16.5649 32.001 16.7551 32.001C16.9457 32.001 17.1221 31.9649 17.2848 31.8938C17.446 31.8235 17.5931 31.7246 17.7191 31.6019C17.8464 31.4785 17.9475 31.3309 18.0166 31.1676C18.0881 31.001 18.1239 30.8227 18.1239 30.6323V30.0372C18.1239 29.9499 18.1216 29.881 18.1177 29.8288C18.1136 29.7773 18.1059 29.7277 18.094 29.6803C18.0822 29.6328 18.0603 29.5813 18.0285 29.5256C17.9968 29.4698 17.9529 29.3904 17.8975 29.2873L16.184 26.2651C16.168 26.2331 16.1582 26.2094 16.1544 26.194C16.1501 26.1779 16.1484 26.134 16.1484 26.0629V25.4559C16.1484 25.2893 16.208 25.1465 16.327 25.0273C16.446 24.9088 16.5886 24.8489 16.7551 24.8489C16.9218 24.8489 17.0646 24.9088 17.1837 25.0273C17.3026 25.1465 17.3622 25.2893 17.3622 25.4559ZM20.73 24.2774C20.73 24.2301 20.7121 24.1867 20.6763 24.147C20.6405 24.1073 20.5947 24.0872 20.5394 24.0872H18.7067C18.6512 24.0872 18.6056 24.1073 18.57 24.147C18.5344 24.1867 18.5164 24.2301 18.5164 24.2774V24.6586C18.5164 24.7855 18.5799 24.8489 18.7067 24.8489H19.2423V31.8103C19.2423 31.9372 19.306 32.001 19.4328 32.001H19.8135C19.9404 32.001 20.0041 31.9372 20.0041 31.8103V24.8489H20.5394C20.6663 24.8489 20.73 24.7855 20.73 24.6586V24.2774ZM24.0736 30.0609C24.0736 29.9897 24.0755 29.9464 24.0796 29.9299V29.9298C24.0835 29.9144 24.0933 29.8907 24.1093 29.8588L25.823 26.8365C25.8782 26.7333 25.9241 26.6519 25.9597 26.592C25.9953 26.5327 26.019 26.479 26.0314 26.4317C26.0431 26.3827 26.0511 26.3329 26.0552 26.2827C26.0588 26.231 26.0608 26.162 26.0608 26.0748V25.4678C26.0608 25.2769 26.0252 25.0991 25.9536 24.9324C25.8837 24.7678 25.7826 24.6183 25.6559 24.4921C25.5297 24.3656 25.3803 24.2646 25.216 24.1944C25.0494 24.1227 24.871 24.0872 24.6802 24.0872C24.4903 24.0872 24.3129 24.1227 24.1508 24.1945C23.9887 24.2657 23.8413 24.3665 23.7164 24.492C23.5898 24.6183 23.4888 24.7678 23.419 24.9324C23.3478 25.0991 23.3119 25.2769 23.3119 25.4678V25.8721C23.3119 25.999 23.3753 26.0629 23.5025 26.0629H23.8831C24.0099 26.0629 24.0736 25.999 24.0736 25.8721V25.4678C24.0736 25.2934 24.1329 25.1465 24.2521 25.0273C24.3707 24.9088 24.5141 24.8489 24.6801 24.8489C24.855 24.8489 25.002 24.9088 25.1206 25.0273C25.2398 25.1465 25.2991 25.2934 25.2991 25.4678V26.0748C25.2991 26.1382 25.297 26.1779 25.2934 26.194C25.2892 26.2094 25.2794 26.2331 25.2634 26.2651L23.5381 29.2997C23.4824 29.4028 23.4388 29.4837 23.407 29.5436C23.3754 29.6029 23.3537 29.6566 23.3416 29.704C23.3296 29.7528 23.3217 29.8025 23.3179 29.8525C23.3137 29.9047 23.3119 29.9742 23.3119 30.0609V31.8103C23.3119 31.9372 23.3753 32.001 23.5025 32.001H25.8705C25.9179 32.001 25.9612 31.9831 26.0015 31.9474C26.0406 31.9114 26.0608 31.8659 26.0608 31.8103V31.4297C26.0608 31.3822 26.0407 31.3383 26.0015 31.2987C25.9612 31.2595 25.9178 31.2393 25.8705 31.2393H24.0736V30.0609ZM28.9525 24.1944C28.7859 24.1227 28.6069 24.0872 28.4172 24.0872C28.2263 24.0872 28.0479 24.1227 27.8818 24.1945C27.7185 24.2636 27.5707 24.3648 27.4471 24.492C27.3234 24.6194 27.2246 24.7688 27.1557 24.9324C27.0845 25.0991 27.0484 25.2769 27.0484 25.4678V30.6323C27.0484 30.8226 27.0845 31.001 27.1557 31.1676C27.2268 31.3343 27.3238 31.4791 27.4471 31.6019C27.5718 31.7264 27.7194 31.8255 27.8819 31.8938C28.0479 31.965 28.2263 32.001 28.4172 32.001C28.6069 32.001 28.7859 31.9649 28.9525 31.8938C29.1191 31.8227 29.264 31.7252 29.3867 31.6019C29.5095 31.4791 29.607 31.3343 29.6786 31.1676C29.7499 31.001 29.7859 30.8227 29.7859 30.6323V25.4678C29.7859 25.2769 29.7498 25.0991 29.6786 24.9324C29.6092 24.769 29.5103 24.6197 29.3868 24.4921C29.2634 24.3648 29.1157 24.2636 28.9525 24.1944ZM28.8453 25.0273C28.9644 25.1465 29.0237 25.2934 29.0237 25.4678H29.0236V26.194C29.0236 26.2094 29.0159 26.2331 28.9999 26.2651L27.8101 28.3595V25.4678C27.8101 25.2934 27.8695 25.1465 27.9886 25.0273C28.1078 24.9088 28.2501 24.8489 28.4172 24.8489C28.5838 24.8489 28.7266 24.9088 28.8453 25.0273ZM27.8458 29.8588L29.0237 27.7643V30.6323C29.0237 30.7989 28.9644 30.9417 28.8453 31.0603C28.7266 31.18 28.5838 31.2393 28.4172 31.2393C28.2501 31.2393 28.1078 31.18 27.9886 31.0604C27.8695 30.9417 27.8101 30.7989 27.8101 30.6323V30.0609C27.8101 29.9897 27.8117 29.9464 27.8159 29.9298C27.82 29.9144 27.8302 29.8907 27.8458 29.8588ZM31.987 24.4683C31.987 24.3651 31.9489 24.2759 31.8736 24.2001C31.7983 24.1247 31.7091 24.0872 31.6065 24.0872H30.6065C30.5513 24.0872 30.5054 24.1073 30.4698 24.147C30.4337 24.1867 30.4161 24.2301 30.4161 24.2774V24.6586C30.4161 24.7855 30.4796 24.8489 30.6065 24.8489H31.2253V31.8103C31.2253 31.9372 31.2888 32.001 31.4156 32.001H31.7963C31.8442 32.001 31.8875 31.9831 31.9273 31.9474C31.9669 31.9114 31.987 31.8659 31.987 31.8103V24.4683ZM35.2537 27.6039C35.329 27.4333 35.3661 27.2528 35.3661 27.0624V25.4679C35.3661 25.277 35.3305 25.0992 35.2588 24.9325C35.1892 24.7679 35.0883 24.6184 34.9618 24.4921C34.8354 24.3657 34.6859 24.2646 34.5213 24.1945C34.3548 24.1228 34.1764 24.0873 33.986 24.0873C33.7952 24.0873 33.6188 24.1228 33.4564 24.1946C33.2943 24.2657 33.1469 24.3666 33.0221 24.4921C32.8952 24.6181 32.7942 24.7678 32.7246 24.9325C32.6534 25.0992 32.6173 25.277 32.6173 25.4679V25.8722C32.6173 25.9991 32.6807 26.063 32.8081 26.063H33.1887C33.3156 26.063 33.379 25.9991 33.379 25.8722V25.4679C33.379 25.3013 33.4383 25.1585 33.558 25.0398C33.6766 24.9202 33.8195 24.8609 33.986 24.8609C34.1604 24.8609 34.3073 24.9202 34.4265 25.0398C34.545 25.1585 34.6049 25.3013 34.6049 25.4679V27.0625C34.6049 27.2291 34.545 27.372 34.4265 27.4905C34.3073 27.6102 34.1604 27.6695 33.986 27.6695C33.8592 27.6695 33.7952 27.733 33.7952 27.8599V28.2403C33.7952 28.3672 33.8591 28.4312 33.986 28.4312C34.1604 28.4312 34.3073 28.49 34.4265 28.6096C34.545 28.7282 34.6049 28.8711 34.6049 29.0377V30.6323C34.6049 30.7989 34.545 30.9417 34.4265 31.0603C34.3073 31.18 34.1604 31.2393 33.986 31.2393C33.8195 31.2393 33.6766 31.18 33.558 31.0604C33.4383 30.9417 33.379 30.7989 33.379 30.6323V30.228C33.379 30.1011 33.3156 30.0372 33.1887 30.0372H32.8081C32.6807 30.0372 32.6173 30.1011 32.6173 30.228V30.6323C32.6173 30.8226 32.6534 31.001 32.7246 31.1676C32.7934 31.331 32.8946 31.4787 33.0221 31.6019C33.148 31.7247 33.2951 31.8236 33.4564 31.8938C33.6188 31.965 33.7952 32.001 33.986 32.001C34.1763 32.001 34.3548 31.9649 34.5213 31.8938C34.685 31.8246 34.8343 31.7256 34.9618 31.6019C35.089 31.4786 35.19 31.3309 35.2588 31.1676C35.3305 31.001 35.3661 30.8227 35.3661 30.6323V29.0377C35.3661 28.8473 35.329 28.6668 35.2537 28.4962C35.1792 28.328 35.072 28.1763 34.9381 28.0501C35.0721 27.9239 35.1794 27.7722 35.2537 27.6039ZM0.111633 26.7241H9.61425V25.6782H0.111633V26.7241ZM0.111633 28.8364H9.61425V27.7905H0.111633V28.8364ZM0.111633 30.949H9.61425V29.9031H0.111633V30.949ZM47.8884 26.7241H38.3858V25.6782H47.8884V26.7241ZM47.8884 28.8364H38.3858V27.7905H47.8884V28.8364ZM47.8884 30.949H38.3858V29.9031H47.8884V30.949Z" fill="#919EAB"/>
</g>
<defs>
<clipPath id="clip0_4416_8586">
<rect width="47.7768" height="32" fill="white" transform="translate(0.111633 0.000976562)"/>
</clipPath>
</defs>
</svg>

<svg width="48" height="32" fill="none" xmlns="http://www.w3.org/2000/svg"><g clip-path="url(#a)"><path fill-rule="evenodd" clip-rule="evenodd" d="m9.207 4.226-.77-2.122c-.082-.222-.232-.292-.45-.21L2.895 3.803c-.22.082-.288.234-.208.456l5.754 15.898c.082.224.23.293.45.211l2.089-.783c.219-.082.288-.234.207-.457l-2.603-7.22 2.324-.872c.218-.082.288-.234.207-.456l-.771-2.122c-.08-.222-.23-.293-.45-.21l-2.323.87-1.247-3.432L9 4.683c.22-.082.289-.234.208-.457Zm12.698 13.007-.234-2.447c-.024-.232-.153-.336-.385-.311l-2.836.299-.537-5.1 2.462-.26c.232-.024.336-.152.311-.384l-.233-2.214c-.025-.232-.153-.336-.385-.311l-2.463.26-.378-3.582 2.836-.3c.232-.024.336-.152.312-.384l-.2-2.183c-.025-.232-.153-.336-.385-.312l-5.432.561c-.232.025-.335.153-.311.385l1.78 16.964c.024.232.152.336.384.311l5.382-.608c.232-.023.336-.152.312-.384Zm10.06.691.332-2.256c.033-.232-.066-.365-.297-.398l-3.07-.442L30.967.594C31 .362 30.901.229 30.67.196L28.442.007c-.232-.033-.364.067-.397.298l-2.42 16.913c-.033.232.065.365.297.398l5.645.607c.232.033.364-.067.397-.299ZM44.522 6.326l.75-2.038c.083-.218.013-.369-.205-.451l-6.106-2.223c-.219-.082-.37-.014-.452.204l-.681 1.989c-.082.218-.015.368.204.45l1.639.617-5.152 13.62a.325.325 0 0 0 .017.274.35.35 0 0 0 .188.177l2.142.657c.218.082.368.014.45-.205L42.41 5.905l1.663.626c.218.082.367.014.45-.205ZM13.65 27.67v-2.82h1.036c.126 0 .19-.064.19-.19v-.382a.191.191 0 0 0-.054-.13.177.177 0 0 0-.136-.06h-1.416a.378.378 0 0 0-.38.381v7.152a.37.37 0 0 0 .106.274.37.37 0 0 0 .274.107h1.415c.127 0 .191-.064.191-.19v-.381a.192.192 0 0 0-.054-.131.178.178 0 0 0-.136-.06h-1.036v-2.808h1.036c.055 0 .1-.02.136-.06a.193.193 0 0 0 .054-.13v-.381c0-.127-.064-.19-.19-.19h-1.036Zm3.713-2.213v.405c0 .127.064.19.19.19h.381c.127 0 .191-.063.191-.19v-.405c0-.19-.036-.367-.107-.53a1.418 1.418 0 0 0-.732-.732 1.298 1.298 0 0 0-.53-.107c-.19 0-.367.036-.53.107a1.416 1.416 0 0 0-.731.732c-.071.163-.107.34-.107.53v.607c0 .071.001.143.006.214a.91.91 0 0 0 .024.155c.011.047.033.1.065.154.045.08.088.159.13.238l1.714 3.023a.423.423 0 0 1 .03.072.698.698 0 0 1 .006.118v.595a.6.6 0 0 1-.178.44.587.587 0 0 1-.429.18.586.586 0 0 1-.428-.18.6.6 0 0 1-.179-.44v-.404a.192.192 0 0 0-.053-.131.176.176 0 0 0-.137-.06h-.381a.175.175 0 0 0-.137.06.192.192 0 0 0-.053.131v.404a1.346 1.346 0 0 0 .404.97c.126.123.273.221.435.292.162.071.339.107.53.107.19 0 .366-.036.529-.107.161-.07.308-.17.434-.292a1.342 1.342 0 0 0 .405-.97v-.595c0-.087-.002-.156-.006-.208a.618.618 0 0 0-.09-.303 11.96 11.96 0 0 1-.13-.239l-1.714-3.022a.39.39 0 0 1-.03-.071.762.762 0 0 1-.006-.131v-.607c0-.167.06-.31.179-.429a.586.586 0 0 1 .428-.178c.167 0 .31.06.429.178.119.12.178.262.178.429Zm3.368-1.179a.19.19 0 0 0-.054-.13.177.177 0 0 0-.137-.06h-1.832a.176.176 0 0 0-.137.06.192.192 0 0 0-.054.13v.382c0 .127.064.19.19.19h.536v6.961c0 .127.064.191.19.191h.382c.126 0 .19-.064.19-.19v-6.962h.535c.127 0 .191-.064.191-.19v-.382Zm3.344 5.784c0-.071.002-.115.006-.131a.397.397 0 0 1 .03-.071l1.713-3.023c.055-.103.101-.184.137-.244a.63.63 0 0 0 .095-.31c.004-.051.006-.12.006-.207v-.607c0-.191-.036-.369-.107-.536a1.386 1.386 0 0 0-.738-.738 1.34 1.34 0 0 0-.536-.107c-.19 0-.367.036-.53.108a1.416 1.416 0 0 0-.731.737 1.346 1.346 0 0 0-.107.536v.404c0 .127.063.19.19.19h.381c.127 0 .19-.063.19-.19v-.404c0-.175.06-.322.18-.44a.586.586 0 0 1 .427-.18.6.6 0 0 1 .44.18c.12.119.18.265.18.44v.607a.741.741 0 0 1-.007.119.433.433 0 0 1-.03.071L23.538 29.3c-.056.103-.1.184-.131.244a.735.735 0 0 0-.09.308 2.75 2.75 0 0 0-.005.209v1.75c0 .126.063.19.19.19h2.369c.047 0 .09-.018.13-.054a.178.178 0 0 0 .06-.137v-.38a.184.184 0 0 0-.06-.131.186.186 0 0 0-.13-.06h-1.797v-1.178Zm4.878-5.867a1.341 1.341 0 0 0-.535-.107 1.334 1.334 0 0 0-.97.405 1.428 1.428 0 0 0-.291.44 1.347 1.347 0 0 0-.108.536v5.164a1.357 1.357 0 0 0 1.369 1.369 1.352 1.352 0 0 0 .97-.4 1.375 1.375 0 0 0 .399-.969v-5.164c0-.191-.036-.369-.107-.536a1.446 1.446 0 0 0-.292-.44 1.325 1.325 0 0 0-.434-.298Zm-.107.833c.12.12.179.266.179.44v.727c0 .015-.008.04-.024.071l-1.19 2.095v-2.892c0-.175.06-.322.179-.44a.586.586 0 0 1 .428-.18c.167 0 .31.06.428.18Zm-1 4.832 1.179-2.095v2.868c0 .167-.06.31-.179.428a.58.58 0 0 1-.428.18.582.582 0 0 1-.428-.18.583.583 0 0 1-.179-.428v-.571c0-.071.002-.115.006-.131a.455.455 0 0 1 .03-.071Zm4.142-5.39a.368.368 0 0 0-.113-.269.365.365 0 0 0-.267-.113h-1a.176.176 0 0 0-.137.06.19.19 0 0 0-.054.13v.382c0 .127.064.19.19.19h.62v6.961c0 .127.063.191.19.191h.38a.192.192 0 0 0 .131-.054.177.177 0 0 0 .06-.137v-7.342Zm3.267 3.135c.075-.17.112-.351.112-.542v-1.594a1.384 1.384 0 0 0-1.91-1.273 1.413 1.413 0 0 0-.731.738 1.347 1.347 0 0 0-.108.535v.404c0 .127.064.191.191.191h.38c.128 0 .191-.064.191-.19v-.405c0-.167.06-.31.179-.428a.581.581 0 0 1 .428-.18c.174 0 .321.06.44.18a.585.585 0 0 1 .179.428v1.595c0 .166-.06.309-.178.428a.597.597 0 0 1-.441.178c-.127 0-.19.064-.19.19v.381c0 .127.063.191.19.191.174 0 .321.059.44.179a.585.585 0 0 1 .179.428v1.594c0 .167-.06.31-.178.428a.597.597 0 0 1-.441.18.581.581 0 0 1-.428-.18.58.58 0 0 1-.179-.428v-.404c0-.127-.063-.19-.19-.19h-.38c-.128 0-.192.063-.192.19v.404a1.348 1.348 0 0 0 .405.97c.126.123.273.222.434.292.163.071.34.107.53.107s.369-.036.535-.107c.164-.07.313-.168.44-.292a1.339 1.339 0 0 0 .404-.97v-1.594c.001-.19-.036-.371-.111-.542a1.382 1.382 0 0 0-.316-.446c.134-.126.241-.278.316-.446Zm-35.142-.88h9.502v-1.046H.112v1.046Zm0 2.112h9.502v-1.045H.112v1.045Zm0 2.113h9.502v-1.046H.112v1.046Zm47.776-4.225h-9.502v-1.046h9.502v1.046Zm0 2.112h-9.502v-1.045h9.502v1.045Zm0 2.113h-9.502v-1.046h9.502v1.046Z" fill="#919EAB"/></g><defs><clipPath id="a"><path fill="#fff" transform="translate(.112 .001)" d="M0 0h47.777v32H0z"/></clipPath></defs></svg>
